src/pos-icons/keyboard-backspace.svg

<svg height="24" viewBox="0 0 24 24" width="24" xmlns="http://www.w3.org/2000/svg"><path d="m21 11h-14.17l3.58-3.59-1.41-1.41-6 6 6 6 1.41-1.42-3.58-3.58h14.17z"/></svg>

<?xml version="1.0" encoding="UTF-8"?><!DOCTYPE svg PUBLIC "-//W3C//DTD SVG 1.1//EN" "http://www.w3.org/Graphics/SVG/1.1/DTD/svg11.dtd"><svg xmlns="http://www.w3.org/2000/svg" xmlns:xlink="http://www.w3.org/1999/xlink" version="1.1" id="mdi-keyboard-backspace" width="24" height="24" viewBox="0 0 24 24"><path d="M21,11H6.83L10.41,7.41L9,6L3,12L9,18L10.41,16.58L6.83,13H21V11Z" /></svg>
